svgs/duotone/right-to-bracket.svg

<svg xmlns="http://www.w3.org/2000/svg" viewBox="0 0 512 512"><!-- Font Awesome Pro 6.0.0-alpha2 by @fontawesome - https://fontawesome.com License - https://fontawesome.com/license (Commercial License) --><defs><style>.fa-secondary{opacity:.4}</style></defs><path d="M416 32H352C334.326 32 320 46.328 320 64S334.326 96 352 96H416C433.674 96 448 110.328 448 128V384C448 401.672 433.674 416 416 416H352C334.326 416 320 430.328 320 448S334.326 480 352 480H416C469.02 480 512 437.02 512 384V128C512 74.98 469.02 32 416 32Z" class="fa-secondary"/><path d="M344.73 273.453L200.629 409.453C193.654 416.031 183.428 417.828 174.625 414.047C165.822 410.25 160.115 401.578 160.115 392V320H32.023C14.336 320 0 305.676 0 288V224C0 206.328 14.336 192 32.023 192H160.115V120C160.115 110.422 165.822 101.75 174.625 97.953C183.428 94.172 193.654 95.969 200.629 102.547L344.73 238.547C354.332 247.609 354.332 264.391 344.73 273.453Z" class="fa-primary"/></svg>

<svg xmlns="http://www.w3.org/2000/svg" viewBox="0 0 512 512"><!--! Font Awesome Pro 6.0.0-alpha3 by @fontawesome - https://fontawesome.com License - https://fontawesome.com/license (Commercial License) --><defs><style>.fa-secondary{opacity:.4}</style></defs><path class="fa-primary" d="M344.7 273.5l-144.1 136c-6.975 6.578-17.2 8.375-26 4.594C165.8 410.3 160.1 401.6 160.1 392V320H32.02C14.33 320 0 305.7 0 288V224c0-17.67 14.33-32 32.02-32h128.1V120c0-9.578 5.707-18.25 14.51-22.05c8.803-3.781 19.03-1.984 26 4.594l144.1 136C354.3 247.6 354.3 264.4 344.7 273.5z"/><path class="fa-secondary" d="M416 32h-64c-17.67 0-32 14.33-32 32s14.33 32 32 32h64c17.67 0 32 14.33 32 32v256c0 17.67-14.33 32-32 32h-64c-17.67 0-32 14.33-32 32s14.33 32 32 32h64c53.02 0 96-42.98 96-96V128C512 74.98 469 32 416 32z"/></svg>
